X: 1
T: After The Battle Of Aughrim
R: polka
M: 2/4
L: 1/8
K: Ador
|:EA A/B/c/d/| ed cA | BG G/F/G/A/ | BA/G/ ED |
EA A/B/c/d/ | ed ea/g/ | ed B/e/d/B/ | A2 A2 :|
|:ae ef/g/ | a/b/a/g/ ef/g/ | a/b/a/f/ g>e | d/e/d/B/ G2 |
ae ef/g/ | a/b/a/g/ ed | Be dB | A2 A2 :|


Tune 1308	Setting 14635

